Obsidian/actions/16s/pane-hide.svg

<svg height="16" viewBox="0 0 16 16" width="16" xmlns="http://www.w3.org/2000/svg"><path d="m3 1v2.0019531l8 .0019531v9.9999998h-8v1.996094l10 .003906v-13.9999998zm3 4.0039062v2h-4v2h4v1.9999998l4-2.9999998z" fill="#bebebe"/></svg>

<svg xmlns="http://www.w3.org/2000/svg" width="16" height="16" viewBox="0 0 16 16">
 <defs>
  <style id="current-color-scheme" type="text/css">
   .ColorScheme-Text { color:#bebebe; } .ColorScheme-Highlight { color:#4285f4; }
  </style>
 </defs>
 <path style="fill:currentColor" class="ColorScheme-Text" d="M 3 1 L 3 3.0019531 L 11 3.0039062 L 11 13.003906 L 3 13.003906 L 3 15 L 13 15.003906 L 13 1.0039062 L 3 1 z M 6 5.0039062 L 6 7.0039062 L 2 7.0039062 L 2 9.0039062 L 6 9.0039062 L 6 11.003906 L 10 8.0039062 L 6 5.0039062 z"/>
</svg>
